svgs/sharp-solid/house-medical-circle-exclamation.svg

<svg xmlns="http://www.w3.org/2000/svg" viewBox="0 0 640 512"><!--! Font Awesome Pro 6.6.0 by @fontawesome - https://fontawesome.com License - https://fontawesome.com/license (Commercial License) Copyright 2024 Fonticons, Inc. --><path d="M320 368.7c.2 59.2 29.7 111.6 74.8 143.3L64.1 512l0-224.4L0 287.6 0 240 288.4 0 520.5 193.7c-8-1.1-16.2-1.7-24.5-1.7c-54.7 0-103.5 24.9-135.8 64L320 256l0-64-64 0 0 64-64 0 0 64 64 0 0 64 64 0 0-15.3zM496 224a144 144 0 1 1 0 288 144 144 0 1 1 0-288zm16 224l0-32-32 0 0 32 32 0zm0-176l-32 0 0 16 0 80 0 16 32 0 0-16 0-80 0-16z"/></svg>

<svg xmlns="http://www.w3.org/2000/svg" viewBox="0 0 640 512"><!--! Font Awesome Pro 6.4.0 by @fontawesome - https://fontawesome.com License - https://fontawesome.com/license (Commercial License) Copyright 2023 Fonticons, Inc. --><path d="M320 368.7c.2 59.2 29.7 111.6 74.8 143.3H64.1V287.6H0V240L288.4 0 520.5 193.7c-8-1.1-16.2-1.7-24.5-1.7c-54.7 0-103.5 24.9-135.8 64H320V192H256v64H192v64h64v64h64V368.7zM496 224a144 144 0 1 1 0 288 144 144 0 1 1 0-288zm16 224V416H480v32h32zm0-176H480v16 80 16h32V368 288 272z"/></svg>
